X:16045
T:Strangers Hornpipe,bass part. JNu.25
M:4/4
Q:180
S:James Nuttall MS,c1830,Rossendale,East Lancs.
R:Hornpipe
O:England
A:East Lancashire
Z:Chris Partington
K:D
"bass part,read as bass clef"z2|B2B2B2z2|B2B2B2z2|B2B2B2z2|f2f2 fedc|!
B2B2B2z2|B2B2B2z2|B2d2f2F2|B2B2B2::!
z2|B2F2B2z2||e2e2f2z2|f2f2f2z2|f2f2f2z2|!
B2B2B2z2|B2B2B2z2|d2e2f2F2|B2B2B2:|]
